src/images/GeneFit/Watch2.svg

<svg fill="none" height="100" viewBox="0 0 100 100" width="100" xmlns="http://www.w3.org/2000/svg"><path d="m99 49.5c0-27.3364-21.9399-49.5-48.9979-49.5-27.0581 0-49.0021 22.1636-49.0021 49.5s21.9399 49.5 49.0021 49.5c8.2995 0 16.1128-2.0955 22.9659-5.775 2.555 1.4603 5.5139 2.3018 8.6746 2.3018 9.5853 0 17.3574-7.6932 17.3574-17.1807 0-3.9022-1.3146-7.4992-3.5316-10.3826 2.2747-5.7049 3.5316-11.9377 3.5316-18.4635zm-88.1963.0206c0-22.473 17.5923-40.68897 39.2931-40.68897 21.7009 0 39.2932 18.21597 39.2932 40.68897 0 4.4138-.6841 8.6584-1.941 12.6349-1.8643-.6554-3.8263-.9888-5.8023-.9859-9.5853 0-17.3574 7.6931-17.3574 17.1806 0 2.97.7624 5.7627 2.1017 8.2006-5.0911 2.4162-10.6557 3.6674-16.29 3.663-21.705-.0042-39.2973-18.2243-39.2973-40.6932zm70.843 40.689c-6.2391.0866-11.7034-5.2264-11.6169-11.5005 0-6.3525 5.2006-11.5005 11.6169-11.5005 6.2103-.1031 11.7159 5.2388 11.617 11.5005 0 6.3525-5.2048 11.5005-11.617 11.5005z" fill="#ec8539"/></svg>

<svg width="100" height="100" viewBox="0 0 100 100" fill="none" xmlns="http://www.w3.org/2000/svg">
<path d="M99 49.5C99 22.1636 77.0601 0 50.0021 0C22.944 0 1 22.1636 1 49.5C1 76.8364 22.9399 99 50.0021 99C58.3016 99 66.1149 96.9045 72.968 93.225C75.523 94.6853 78.4819 95.5268 81.6426 95.5268C91.2279 95.5268 99 87.8336 99 78.3461C99 74.4439 97.6854 70.8469 95.4684 67.9635C97.7431 62.2586 99 56.0258 99 49.5V49.5ZM10.8037 49.5206C10.8037 27.0476 28.396 8.83163 50.0968 8.83163C71.7977 8.83163 89.39 27.0476 89.39 49.5206C89.39 53.9344 88.7059 58.179 87.449 62.1555C85.5847 61.5001 83.6227 61.1667 81.6467 61.1696C72.0614 61.1696 64.2893 68.8627 64.2893 78.3502C64.2893 81.3202 65.0517 84.1129 66.391 86.5508C61.2999 88.967 55.7353 90.2182 50.101 90.2138C28.396 90.2096 10.8037 71.9895 10.8037 49.5206ZM81.6467 90.2096C75.4076 90.2962 69.9433 84.9832 70.0298 78.7091C70.0298 72.3566 75.2304 67.2086 81.6467 67.2086C87.857 67.1055 93.3626 72.4474 93.2637 78.7091C93.2637 85.0616 88.0589 90.2096 81.6467 90.2096Z" fill="#EC8539"/>
</svg>
